svgs/thin/location-xmark.svg

<svg xmlns="http://www.w3.org/2000/svg" viewBox="0 0 384 512"><!--! Font Awesome Pro 6.0.0-alpha3 by @fontawesome - https://fontawesome.com License - https://fontawesome.com/license (Commercial License) --><path d="M192 0C85.97 0 0 85.96 0 191.1c0 77.41 26.97 99.04 172.3 309.7C177 508.6 184.5 512 192 512s14.95-3.441 19.72-10.32C357 291 384 269.4 384 191.1C384 85.96 298 0 192 0zM198.6 492.6C196.5 495.6 193.6 496 192 496s-4.496-.4473-6.549-3.41c-25.93-37.59-48.1-69.17-67.02-96.12C31.64 272.8 16 250.6 16 192C16 94.95 94.95 16 192 16s176 78.95 176 176c0 58.55-15.64 80.83-102.4 204.5C246.6 423.4 224.5 455 198.6 492.6zM269.7 114.3c-3.125-3.125-8.188-3.125-11.31 0L192 180.7L125.7 114.3c-3.125-3.125-8.188-3.125-11.31 0s-3.125 8.188 0 11.31L180.7 191.1L114.3 258.3c-3.125 3.125-3.125 8.188 0 11.31c3.127 3.127 8.186 3.127 11.31 0L192 203.3l66.34 66.34c3.127 3.127 8.186 3.127 11.31 0c3.125-3.125 3.125-8.188 0-11.31L203.3 191.1l66.34-66.34C272.8 122.5 272.8 117.5 269.7 114.3z"/></svg>

<svg xmlns="http://www.w3.org/2000/svg" viewBox="0 0 384 512"><!-- Font Awesome Pro 6.0.0-alpha2 by @fontawesome - https://fontawesome.com License - https://fontawesome.com/license (Commercial License) --><path d="M192 0C85.969 0 0 85.969 0 192.002C0 269.408 26.969 291.033 172.281 501.676C177.047 508.559 184.523 512 192 512S206.953 508.559 211.719 501.676C357.031 291.033 384 269.408 384 192.002C384 85.969 298.031 0 192 0ZM198.564 492.566C196.496 495.553 193.564 496 192 496S187.504 495.553 185.451 492.59C159.52 455 137.352 423.42 118.432 396.467C31.639 272.832 16 250.553 16 192.002C16 94.953 94.953 16 192 16S368 94.953 368 192.002C368 250.553 352.361 272.832 265.568 396.467C246.648 423.42 224.48 455 198.564 492.566ZM269.656 114.344C266.531 111.219 261.469 111.219 258.344 114.344L192 180.686L125.656 114.344C122.531 111.219 117.469 111.219 114.344 114.344S111.219 122.531 114.344 125.656L180.688 191.998L114.344 258.342C111.219 261.467 111.219 266.529 114.344 269.654C117.471 272.781 122.529 272.781 125.656 269.654L192 203.311L258.344 269.654C261.471 272.781 266.529 272.781 269.656 269.654C272.781 266.529 272.781 261.467 269.656 258.342L203.312 191.998L269.656 125.656C272.781 122.531 272.781 117.469 269.656 114.344Z"/></svg>
